;FLAVOR:Marlin
;TIME:1405
;Filament used: 2.346m
;Layer height: 0.2
;MINX:-25.168
;MINY:-26.864
;MINZ:0.3
;MAXX:25.169
;MAXY:23.474
;MAXZ:17.5
;Generated with Cura_SteamEngine 4.8.0
M140 S70
M105
M190 S70
M104 S180
M105
M109 S180
M82 ;absolute extrusion mode
G21        ;metric values
G90        ;absolute positioning
M107       ;start with the fan off
G28   ;move to endstops
G92 E0                  ;zero the extruded length
G1 F200 E3              ;extrude 3mm of feed stock
G92 E0                  ;zero the extruded length again
G1 F120
;Put printing message on LCD screen
M117 Printing...
G92 E0
G92 E0
G1 F1500 E-6.5
;LAYER_COUNT:87
;LAYER:0
M107
G0 F3600 X0.124 Y23.474 Z0.3
;TYPE:SKIRT
G1 F1500 E0
G1 F1800 X-.133 Y23.474 E0.01603
G1 X-.675 Y23.465 E0.04983
G1 X-.909 Y23.458 E0.06443
G1 X-1.464 Y23.432 E0.09908
G1 X-1.693 Y23.417 E0.11339
G1 X-2.241 Y23.375 E0.14767
G1 X-2.549 Y23.346 E0.16696
G1 X-3.079 Y23.284 E0.20024
G1 X-3.791 Y23.187 E0.24505
G1 X-4.069 Y23.143 E0.2626
G1 X-4.604 Y23.049 E0.29648
G1 X-4.831 Y23.006 E0.31089
G1 X-5.373 Y22.894 E0.3454
G1 X-5.607 Y22.842 E0.36035
G1 X-6.134 Y22.716 E0.39414
G1 X-6.396 Y22.648 E0.41102
G1 X-6.928 Y22.501 E0.44544
G1 X-7.143 Y22.438 E0.45941
G1 X-7.702 Y22.266 E0.49589
G1 X-7.966 Y22.18 E0.5132
G1 X-8.441 Y22.015 E0.54456
G1 X-8.645 Y21.941 E0.55809
G1 X-9.162 Y21.745 E0.59258
G1 X-9.35 Y21.671 E0.60518
G1 X-9.851 Y21.466 E0.63893
G1 X-10.119 Y21.35 E0.65714
G1 X-10.628 Y21.119 E0.692
G1 X-10.839 Y21.019 E0.70657
G1 X-11.326 Y20.78 E0.7404
G1 X-11.507 Y20.689 E0.75303
G1 X-11.994 Y20.434 E0.78731
G1 X-12.28 Y20.276 E0.80769
G1 X-12.795 Y19.978 E0.84479
G1 X-13.401 Y19.609 E0.88904
G1 X-13.6 Y19.482 E0.90376
G1 X-14.048 Y19.187 E0.93722
G1 X-14.25 Y19.049 E0.95247
G1 X-14.707 Y18.727 E0.98734
G1 X-14.886 Y18.597 E1.00113
G1 X-15.315 Y18.276 E1.03455
G1 X-15.497 Y18.136 E1.04886
G1 X-15.937 Y17.786 E1.08393
G1 X-16.171 Y17.592 E1.10288
G1 X-16.576 Y17.243 E1.13622
G1 X-16.725 Y17.111 E1.14864
G1 X-17.179 Y16.699 E1.18687
G1 X-17.744 Y16.153 E1.23587
G1 X-17.872 Y16.026 E1.24711
G1 X-18.247 Y15.641 E1.28063
G1 X-18.436 Y15.439 E1.29788
G1 X-18.806 Y15.031 E1.33223
G1 X-18.953 Y14.864 E1.34611
G1 X-19.315 Y14.441 E1.38083
G1 X-19.469 Y14.255 E1.39589
G1 X-19.812 Y13.828 E1.43004
G1 X-19.97 Y13.625 E1.44608
G1 X-20.297 Y13.189 E1.48007
G1 X-20.452 Y12.974 E1.4966
G1 X-20.787 Y12.494 E1.5331
G1 X-20.915 Y12.305 E1.54734
G1 X-21.194 Y11.879 E1.5791
G1 X-21.321 Y11.678 E1.59392
G1 X-21.608 Y11.209 E1.62821
G1 X-21.735 Y10.995 E1.64373
G1 X-22 Y10.529 E1.67716
G1 X-22.115 Y10.32 E1.69204
G1 X-22.374 Y9.83 E1.7266
G1 X-22.471 Y9.64 E1.73991
G1 X-22.715 Y9.146 E1.77427
G1 X-22.836 Y8.888 E1.79204
G1 X-23.06 Y8.389 E1.82615
G1 X-23.163 Y8.151 E1.84232
G1 X-23.366 Y7.655 E1.87575
G1 X-23.632 Y6.962 E1.92204
G1 X-23.73 Y6.689 E1.94013
G1 X-23.905 Y6.173 E1.97411
G1 X-23.971 Y5.969 E1.98748
G1 X-24.133 Y5.444 E2.02174
G1 X-24.197 Y5.227 E2.03585
G1 X-24.344 Y4.696 E2.07021
G1 X-24.414 Y4.422 E2.08785
G1 X-24.538 Y3.901 E2.12124
G1 X-24.586 Y3.686 E2.13498
G1 X-24.699 Y3.143 E2.16957
G1 X-24.75 Y2.875 E2.18658
G1 X-24.841 Y2.345 E2.22012
G1 X-24.875 Y2.134 E2.23345
G1 X-24.954 Y1.583 E2.26816
G1 X-24.984 Y1.345 E2.28312
G1 X-25.044 Y0.809 E2.31676
G1 X-25.068 Y0.553 E2.33279
G1 X-25.111 Y0.005 E2.36707
G1 X-25.127 Y-.25 E2.383
G1 X-25.152 Y-.802 E2.41746
G1 X-25.159 Y-1.023 E2.43125
G1 X-25.168 Y-1.56 E2.46475
G1 X-25.168 Y-1.817 E2.48077
G1 X-25.159 Y-2.367 E2.51508
G1 X-25.152 Y-2.602 E2.52974
G1 X-25.126 Y-3.158 E2.56445
G1 X-25.112 Y-3.384 E2.57857
G1 X-25.071 Y-3.923 E2.61228
G1 X-25.042 Y-4.221 E2.63095
G1 X-24.958 Y-4.939 E2.67604
G1 X-24.882 Y-5.487 E2.71054
G1 X-24.839 Y-5.761 E2.72784
G1 X-24.745 Y-6.297 E2.76177
G1 X-24.7 Y-6.529 E2.77651
G1 X-24.588 Y-7.07 E2.81096
G1 X-24.537 Y-7.298 E2.82553
G1 X-24.411 Y-7.826 E2.85939
G1 X-24.34 Y-8.103 E2.87722
G1 X-24.194 Y-8.628 E2.9112
G1 X-24.135 Y-8.829 E2.92427
G1 X-23.961 Y-9.395 E2.96119
G1 X-23.88 Y-9.643 E2.97746
G1 X-23.716 Y-10.119 E3.00886
G1 X-23.642 Y-10.324 E3.02245
G1 X-23.447 Y-10.842 E3.05697
G1 X-23.358 Y-11.069 E3.07217
G1 X-23.152 Y-11.568 E3.10584
G1 X-23.05 Y-11.803 E3.12182
G1 X-22.824 Y-12.303 E3.15604
G1 X-22.716 Y-12.531 E3.17177
G1 X-22.475 Y-13.021 E3.20582
G1 X-22.377 Y-13.214 E3.21932
G1 X-22.123 Y-13.696 E3.2533
G1 X-21.98 Y-13.955 E3.27175
G1 X-21.676 Y-14.482 E3.30969
G1 X-21.32 Y-15.07 E3.35256
G1 X-21.18 Y-15.29 E3.36882
G1 X-20.881 Y-15.744 E3.40272
G1 X-20.746 Y-15.942 E3.41766
G1 X-20.425 Y-16.398 E3.45244
G1 X-20.291 Y-16.582 E3.46664
G1 X-19.969 Y-17.012 E3.50014
G1 X-19.836 Y-17.186 E3.5138
G1 X-19.493 Y-17.618 E3.5482
G1 X-19.294 Y-17.858 E3.56764
G1 X-18.933 Y-18.277 E3.60213
G1 X-18.795 Y-18.433 E3.61512
G1 X-18.393 Y-18.875 E3.65238
G1 X-17.861 Y-19.426 E3.70014
G1 X-17.726 Y-19.561 E3.71205
G1 X-17.337 Y-19.94 E3.74592
G1 X-17.136 Y-20.129 E3.76312
G1 X-16.727 Y-20.5 E3.79756
G1 X-16.566 Y-20.642 E3.81095
G1 X-16.144 Y-21.004 E3.84562
G1 X-15.934 Y-21.178 E3.86263
G1 X-15.512 Y-21.515 E3.89631
G1 X-15.326 Y-21.659 E3.91098
G1 X-14.89 Y-21.986 E3.94497
G1 X-14.679 Y-22.139 E3.96122
G1 X-14.191 Y-22.48 E3.99835
G1 X-13.588 Y-22.879 E4.04344
G1 X-13.392 Y-23.004 E4.05794
G1 X-12.915 Y-23.297 E4.09285
G1 X-12.679 Y-23.436 E4.10993
G1 X-12.213 Y-23.7 E4.14333
G1 X-12.017 Y-23.808 E4.15728
G1 X-11.533 Y-24.064 E4.19143
G1 X-11.341 Y-24.162 E4.20487
G1 X-10.849 Y-24.405 E4.23909
G1 X-10.596 Y-24.524 E4.25653
G1 X-10.089 Y-24.752 E4.2912
G1 X-9.858 Y-24.851 E4.30687
G1 X-9.177 Y-25.129 E4.35274
G1 X-8.666 Y-25.324 E4.38685
G1 X-8.391 Y-25.423 E4.40508
G1 X-7.866 Y-25.601 E4.43965
G1 X-7.663 Y-25.666 E4.45294
G1 X-7.138 Y-25.828 E4.4872
G1 X-6.921 Y-25.892 E4.50131
G1 X-6.39 Y-26.039 E4.53567
G1 X-6.106 Y-26.112 E4.55396
G1 X-5.586 Y-26.235 E4.58728
G1 X-4.861 Y-26.39 E4.63352
G1 X-4.555 Y-26.449 E4.65295
G1 X-4.019 Y-26.54 E4.68686
G1 X-3.82 Y-26.571 E4.69942
G1 X-3.282 Y-26.648 E4.73331
G1 X-3.051 Y-26.677 E4.74783
G1 X-2.509 Y-26.738 E4.78184
G1 X-2.248 Y-26.763 E4.79819
G1 X-1.7 Y-26.806 E4.83247
G1 X-1.445 Y-26.822 E4.84841
G1 X-.893 Y-26.847 E4.88287
G1 X-.684 Y-26.854 E4.89591
G1 X-.138 Y-26.864 E4.92996
G1 X0.147 Y-26.864 E4.94774
G1 X0.689 Y-26.854 E4.98154
G1 X0.909 Y-26.847 E4.99527
G1 X1.464 Y-26.821 E5.02992
G1 X1.694 Y-26.806 E5.04429
G1 X2.241 Y-26.764 E5.07851
G1 X2.521 Y-26.738 E5.09604
G1 X3.059 Y-26.677 E5.12981
G1 X3.276 Y-26.649 E5.14346
G1 X3.811 Y-26.573 E5.17715
G1 X4.045 Y-26.536 E5.19193
G1 X4.587 Y-26.442 E5.22623
G1 X4.845 Y-26.393 E5.24261
G1 X5.387 Y-26.28 E5.27714
G1 X5.594 Y-26.234 E5.29036
G1 X6.121 Y-26.109 E5.32414
G1 X6.408 Y-26.035 E5.34262
G1 X6.933 Y-25.889 E5.37661
G1 X7.134 Y-25.83 E5.38967
G1 X7.7 Y-25.656 E5.4266
G1 X7.948 Y-25.575 E5.44287
G1 X8.424 Y-25.411 E5.47426
G1 X8.625 Y-25.339 E5.48758
G1 X9.144 Y-25.144 E5.52215
G1 X9.393 Y-25.045 E5.53886
G1 X9.891 Y-24.838 E5.5725
G1 X10.112 Y-24.742 E5.58752
G1 X10.62 Y-24.512 E5.6223
G1 X10.844 Y-24.406 E5.63775
G1 X11.515 Y-24.074 E5.68444
G1 X11.993 Y-23.823 E5.71811
G1 X12.264 Y-23.673 E5.73743
G1 X12.789 Y-23.37 E5.77523
G1 X13.393 Y-23.002 E5.81934
G1 X13.577 Y-22.885 E5.83294
G1 X14.032 Y-22.587 E5.86685
G1 X14.254 Y-22.437 E5.88356
G1 X14.709 Y-22.116 E5.91829
G1 X14.882 Y-21.99 E5.93164
G1 X15.314 Y-21.667 E5.96527
G1 X15.49 Y-21.531 E5.97915
G1 X15.921 Y-21.189 E6.01346
G1 X16.163 Y-20.989 E6.03304
G1 X16.582 Y-20.628 E6.06753
G1 X16.743 Y-20.486 E6.08091
G1 X17.182 Y-20.086 E6.11795
G1 X17.737 Y-19.55 E6.16607
G1 X17.878 Y-19.408 E6.17855
G1 X18.252 Y-19.023 E6.21202
G1 X18.42 Y-18.845 E6.22729
G1 X18.792 Y-18.437 E6.26172
G1 X18.953 Y-18.254 E6.27692
G1 X19.315 Y-17.831 E6.31164
G1 X19.469 Y-17.645 E6.3267
G1 X19.812 Y-17.218 E6.36085
G1 X19.973 Y-17.01 E6.37726
G1 X20.295 Y-16.58 E6.41076
G1 X20.449 Y-16.368 E6.4271
G1 X20.79 Y-15.879 E6.46428
G1 X21.181 Y-15.29 E6.50837
G1 X21.316 Y-15.076 E6.52415
G1 X21.603 Y-14.607 E6.55844
G1 X21.733 Y-14.387 E6.57437
G1 X22.002 Y-13.913 E6.60836
G1 X22.107 Y-13.723 E6.6219
G1 X22.364 Y-13.239 E6.65607
G1 X22.465 Y-13.042 E6.66988
G1 X22.708 Y-12.551 E6.70404
G1 X22.833 Y-12.286 E6.72232
G1 X23.061 Y-11.778 E6.75704
G1 X23.163 Y-11.541 E6.77313
G1 X23.366 Y-11.045 E6.80655
G1 X23.629 Y-10.361 E6.85225
G1 X23.723 Y-10.1 E6.86956
G1 X23.899 Y-9.584 E6.90355
G1 X23.972 Y-9.359 E6.91831
G1 X24.134 Y-8.832 E6.95269
G1 X24.192 Y-8.634 E6.96556
G1 X24.339 Y-8.106 E6.99974
G1 X24.414 Y-7.816 E7.01842
G1 X24.54 Y-7.285 E7.05245
G1 X24.586 Y-7.078 E7.06567
G1 X24.699 Y-6.536 E7.1002
G1 X24.751 Y-6.263 E7.11753
G1 X24.842 Y-5.732 E7.15113
G1 X24.874 Y-5.525 E7.16419
G1 X24.953 Y-4.975 E7.19884
G1 X24.984 Y-4.735 E7.21394
G1 X25.044 Y-4.199 E7.24757
G1 X25.068 Y-3.945 E7.26348
G1 X25.111 Y-3.399 E7.29764
G1 X25.127 Y-3.144 E7.31357
G1 X25.152 Y-2.595 E7.34784
G1 X25.159 Y-2.384 E7.36101
G1 X25.169 Y-1.838 E7.39506
G1 X25.169 Y-1.554 E7.41278
G1 X25.159 Y-1.007 E7.44689
G1 X25.152 Y-.786 E7.46068
G1 X25.126 Y-.231 E7.49533
G1 X25.112 Y-0.006 E7.50939
G1 X25.071 Y0.533 E7.5431
G1 X25.042 Y0.829 E7.56165
G1 X24.958 Y1.55 E7.60692
G1 X24.882 Y2.098 E7.64142
G1 X24.838 Y2.374 E7.65885
G1 X24.744 Y2.909 E7.69272
G1 X24.701 Y3.136 E7.70713
G1 X24.589 Y3.678 E7.74165
G1 X24.537 Y3.909 E7.75641
G1 X24.411 Y4.437 E7.79026
G1 X24.34 Y4.714 E7.8081
G1 X24.194 Y5.239 E7.84208
G1 X24.134 Y5.444 E7.8554
G1 X23.96 Y6.009 E7.89227
G1 X23.88 Y6.253 E7.90828
G1 X23.716 Y6.729 E7.93968
G1 X23.642 Y6.934 E7.95327
G1 X23.447 Y7.452 E7.98779
G1 X23.358 Y7.679 E8.00299
G1 X23.152 Y8.178 E8.03666
G1 X23.05 Y8.413 E8.05264
G1 X22.824 Y8.913 E8.08686
G1 X22.716 Y9.141 E8.10259
G1 X22.475 Y9.631 E8.13664
G1 X22.38 Y9.818 E8.14972
G1 X22.126 Y10.301 E8.18376
G1 X21.978 Y10.571 E8.20296
G1 X21.673 Y11.099 E8.24098
G1 X21.309 Y11.695 E8.28454
G1 X21.2 Y11.868 E8.29729
G1 X20.902 Y12.325 E8.33131
G1 X20.741 Y12.562 E8.34918
G1 X20.424 Y13.011 E8.38345
G1 X20.293 Y13.191 E8.39734
G1 X19.966 Y13.627 E8.43133
G1 X19.836 Y13.796 E8.44462
G1 X19.493 Y14.228 E8.47902
G1 X19.293 Y14.469 E8.49855
G1 X18.807 Y15.03 E8.54484
G1 X18.396 Y15.483 E8.58299
G1 X17.853 Y16.045 E8.63172
G1 X17.337 Y16.55 E8.67675
G1 X17.136 Y16.739 E8.69395
G1 X16.727 Y17.11 E8.72839
G1 X16.559 Y17.258 E8.74235
G1 X16.136 Y17.62 E8.77707
G1 X15.95 Y17.774 E8.79213
G1 X15.523 Y18.117 E8.82629
G1 X15.315 Y18.278 E8.84269
G1 X14.885 Y18.6 E8.87619
G1 X14.673 Y18.754 E8.89253
G1 X14.184 Y19.095 E8.92971
G1 X13.595 Y19.486 E8.9738
G1 X13.391 Y19.615 E8.98885
G1 X12.922 Y19.903 E9.02317
G1 X12.698 Y20.036 E9.03942
G1 X12.225 Y20.305 E9.07335
G1 X12.012 Y20.422 E9.08851
G1 X11.527 Y20.678 E9.12271
G1 X11.341 Y20.773 E9.13573
G1 X10.849 Y21.016 E9.16996
G1 X10.596 Y21.135 E9.18739
G1 X10.089 Y21.363 E9.22206
G1 X9.851 Y21.465 E9.23821
G1 X9.186 Y21.736 E9.28299
G1 X8.674 Y21.932 E9.31718
G1 X8.391 Y22.034 E9.33594
G1 X7.866 Y22.212 E9.37051
G1 X7.665 Y22.277 E9.38368
G1 X7.147 Y22.437 E9.41749
G1 X6.916 Y22.504 E9.43249
G1 X6.378 Y22.652 E9.46729
G1 X6.12 Y22.719 E9.48391
G1 X5.6 Y22.843 E9.51725
G1 X5.381 Y22.891 E9.53123
G1 X4.838 Y23.004 E9.56582
G1 X4.57 Y23.055 E9.58284
G1 X4.04 Y23.146 E9.61637
G1 X3.827 Y23.18 E9.62982
G1 X3.275 Y23.259 E9.6646
G1 X3.055 Y23.287 E9.67843
G1 X2.52 Y23.348 E9.71201
G1 X2.248 Y23.374 E9.72905
G1 X1.7 Y23.417 E9.76333
G1 X1.445 Y23.433 E9.77926
G1 X0.893 Y23.458 E9.81372
G1 X0.67 Y23.465 E9.82764
G1 X0.124 Y23.474 E9.86169
G0 F3600 X0.115 Y22.974
G1 F1800 X-.124 Y22.974 E9.8766
G1 X-.666 Y22.965 E9.9104
G1 X-.885 Y22.958 E9.92406
G1 X-1.44 Y22.932 E9.95871
G1 X-1.655 Y22.919 E9.97215
G1 X-2.203 Y22.877 E10.00642
G1 X-2.491 Y22.849 E10.02447
G1 X-3.173 Y22.768 E10.0673
G1 X-3.722 Y22.692 E10.10186
G1 X-3.983 Y22.651 E10.11834
G1 X-4.518 Y22.557 E10.15221
G1 X-4.73 Y22.516 E10.16568
G1 X-5.272 Y22.404 E10.20019
G1 X-5.491 Y22.355 E10.21419
G1 X-6.018 Y22.229 E10.24798
G1 X-6.263 Y22.166 E10.26376
G1 X-6.795 Y22.019 E10.29818
G1 X-6.996 Y21.96 E10.31124
G1 X-7.555 Y21.788 E10.34771
G1 X-7.802 Y21.708 E10.3639
G1 X-8.277 Y21.543 E10.39526
G1 X-8.468 Y21.473 E10.40795
G1 X-8.985 Y21.277 E10.44243
G1 X-9.161 Y21.208 E10.45422
G1 X-9.662 Y21.003 E10.48798
G1 X-9.912 Y20.895 E10.50496
G1 X-10.421 Y20.664 E10.53982
G1 X-10.619 Y20.57 E10.55349
G1 X-11.275 Y20.246 E10.59912
G1 X-11.762 Y19.991 E10.6334
G1 X-12.03 Y19.843 E10.65249
G1 X-12.545 Y19.545 E10.6896
G1 X-13.139 Y19.183 E10.73298
G1 X-13.325 Y19.064 E10.74675
G1 X-13.773 Y18.769 E10.7802
G1 X-13.962 Y18.641 E10.79443
G1 X-14.419 Y18.319 E10.8293
G1 X-14.587 Y18.197 E10.84225
G1 X-15.016 Y17.876 E10.87566
G1 X-15.185 Y17.745 E10.88899
G1 X-15.625 Y17.395 E10.92406
G1 X-15.845 Y17.213 E10.94186
G1 X-16.25 Y16.864 E10.9752
G1 X-16.389 Y16.741 E10.98678
G1 X-16.843 Y16.329 E11.02501
G1 X-17.394 Y15.796 E11.07282
G1 X-17.514 Y15.677 E11.08336
G1 X-17.889 Y15.292 E11.11688
G1 X-18.066 Y15.103 E11.13302
G1 X-18.436 Y14.695 E11.16737
G1 X-18.573 Y14.539 E11.18032
G1 X-18.935 Y14.116 E11.21504
G1 X-19.079 Y13.942 E11.22913
G1 X-19.422 Y13.515 E11.26328
G1 X-19.57 Y13.325 E11.2783
G1 X-19.897 Y12.889 E11.31229
G1 X-20.042 Y12.688 E11.32774
G1 X-20.377 Y12.208 E11.36425
G1 X-20.497 Y12.031 E11.37758
G1 X-20.776 Y11.605 E11.40934
G1 X-20.895 Y11.417 E11.42322
G1 X-21.182 Y10.948 E11.45751
G1 X-21.3 Y10.748 E11.47199
G1 X-21.565 Y10.282 E11.50542
G1 X-21.673 Y10.086 E11.51938
G1 X-21.932 Y9.596 E11.55394
G1 X-22.022 Y9.419 E11.56632
G1 X-22.266 Y8.925 E11.60068
G1 X-22.38 Y8.683 E11.61737
G1 X-22.604 Y8.184 E11.65148
G1 X-22.7 Y7.961 E11.66662
G1 X-22.903 Y7.465 E11.70004
G1 X-22.967 Y7.303 E11.7109
G1 X-23.165 Y6.784 E11.74554
G1 X-23.257 Y6.529 E11.76245
G1 X-23.432 Y6.013 E11.79643
G1 X-23.494 Y5.822 E11.80895
G1 X-23.656 Y5.297 E11.84322
G1 X-23.715 Y5.093 E11.85646
G1 X-23.862 Y4.562 E11.89082
G1 X-23.928 Y4.307 E11.90725
G1 X-24.052 Y3.786 E11.94064
G1 X-24.097 Y3.584 E11.95355
G1 X-24.21 Y3.041 E11.98814
G1 X-24.257 Y2.791 E12.004
G1 X-24.348 Y2.261 E12.03754
G1 X-24.38 Y2.063 E12.05005
G1 X-24.459 Y1.512 E12.08476
G1 X-24.487 Y1.29 E12.09871
G1 X-24.547 Y0.754 E12.13235
G1 X-24.57 Y0.514 E12.14738
G1 X-24.613 Y-0.034 E12.18166
G1 X-24.628 Y-.273 E12.1966
G1 X-24.653 Y-.825 E12.23106
G1 X-24.659 Y-1.032 E12.24397
G1 X-24.668 Y-1.569 E12.27747
G1 X-24.668 Y-1.809 E12.29243
G1 X-24.659 Y-2.359 E12.32674
G1 X-24.652 Y-2.579 E12.34046
G1 X-24.626 Y-3.135 E12.37518
G1 X-24.613 Y-3.346 E12.38836
G1 X-24.572 Y-3.885 E12.42207
G1 X-24.546 Y-4.163 E12.43948
G1 X-24.484 Y-4.702 E12.47332
G1 X-24.386 Y-5.418 E12.51839
G1 X-24.346 Y-5.674 E12.53454
G1 X-24.252 Y-6.21 E12.56848
G1 X-24.21 Y-6.428 E12.58233
G1 X-24.098 Y-6.969 E12.61678
G1 X-24.051 Y-7.182 E12.63038
G1 X-23.925 Y-7.71 E12.66423
G1 X-23.858 Y-7.969 E12.68092
G1 X-23.712 Y-8.494 E12.7149
G1 X-23.657 Y-8.682 E12.72712
G1 X-23.483 Y-9.248 E12.76404
G1 X-23.408 Y-9.48 E12.77925
G1 X-23.244 Y-9.956 E12.81065
G1 X-23.174 Y-10.148 E12.82339
G1 X-22.979 Y-10.666 E12.85791
G1 X-22.895 Y-10.879 E12.87219
G1 X-22.689 Y-11.378 E12.90585
G1 X-22.594 Y-11.597 E12.92074
G1 X-22.368 Y-12.097 E12.95496
G1 X-22.268 Y-12.311 E12.96969
G1 X-22.027 Y-12.801 E13.00374
G1 X-21.935 Y-12.981 E13.01635
G1 X-21.681 Y-13.463 E13.05033
G1 X-21.547 Y-13.706 E13.06763
G1 X-21.243 Y-14.233 E13.10557
G1 X-20.893 Y-14.809 E13.14761
G1 X-20.763 Y-15.015 E13.1628
G1 X-20.464 Y-15.469 E13.1967
G1 X-20.337 Y-15.654 E13.21069
G1 X-20.016 Y-16.11 E13.24547
G1 X-19.891 Y-16.283 E13.25878
G1 X-19.569 Y-16.713 E13.29228
G1 X-19.444 Y-16.875 E13.30504
G1 X-19.101 Y-17.307 E13.33944
G1 X-18.916 Y-17.531 E13.35756
G1 X-18.555 Y-17.95 E13.39205
G1 X-18.425 Y-18.096 E13.40424
G1 X-18.023 Y-18.538 E13.4415
G1 X-17.503 Y-19.077 E13.48821
G1 X-17.377 Y-19.203 E13.49932
G1 X-16.988 Y-19.582 E13.53319
G1 X-16.8 Y-19.759 E13.54929
G1 X-16.391 Y-20.13 E13.58373
G1 X-16.24 Y-20.263 E13.59628
G1 X-15.818 Y-20.625 E13.63095
G1 X-15.622 Y-20.787 E13.64681
G1 X-15.2 Y-21.124 E13.68049
G1 X-15.026 Y-21.259 E13.69422
G1 X-14.59 Y-21.586 E13.72821
G1 X-14.393 Y-21.729 E13.74339
G1 X-13.905 Y-22.07 E13.78052
G1 X-13.314 Y-22.461 E13.82471
