;FLAVOR:Marlin
;TIME:28617
;Filament used: 35.4346m
;Layer height: 0.2
;MINX:-116.656
;MINY:-107.63
;MINZ:0.3
;MAXX:113.612
;MAXY:107.63
;MAXZ:17.5
;Generated with Cura_SteamEngine 4.8.0
M140 S70
M105
M190 S70
M104 S180
M105
M109 S180
M82 ;absolute extrusion mode
G21        ;metric values
G90        ;absolute positioning
M107       ;start with the fan off
G28   ;move to endstops
G92 E0                  ;zero the extruded length
G1 F200 E3              ;extrude 3mm of feed stock
G92 E0                  ;zero the extruded length again
G1 F120
;Put printing message on LCD screen
M117 Printing...
G92 E0
G92 E0
G1 F1500 E-6.5
;LAYER_COUNT:87
;LAYER:0
M107
G0 F3600 X80.096 Y-47.636 Z0.3
;TYPE:SKIRT
G1 F1500 E0
G1 F1800 X80.79 Y-47.563 E0.03481
G1 X81.204 Y-47.508 E0.05565
G1 X83.894 Y-47.078 E0.19156
G1 X84.667 Y-46.914 E0.23098
G1 X85.419 Y-46.673 E0.27038
G1 X86.142 Y-46.357 E0.30975
G1 X86.83 Y-45.969 E0.34915
G1 X87.462 Y-45.525 E0.38769
G1 X87.544 Y-45.461 E0.39288
G1 X88.141 Y-44.944 E0.43228
G1 X88.683 Y-44.37 E0.47166
G1 X89.164 Y-43.743 E0.51109
G1 X89.579 Y-43.072 E0.55045
G1 X89.95 Y-42.3 E0.59318
G1 X90.869 Y-40.084 E0.71287
G1 X91.134 Y-39.34 E0.75227
G1 X91.323 Y-38.573 E0.79168
G1 X91.361 Y-38.3 E0.80543
G1 X105.695 Y-38.3 E1.52056
G1 X106.484 Y-38.26 E1.55997
G1 X107.264 Y-38.141 E1.59934
G1 X108.029 Y-37.943 E1.63876
G1 X108.769 Y-37.669 E1.67813
G1 X109.478 Y-37.321 E1.71753
G1 X110.149 Y-36.903 E1.75697
G1 X110.773 Y-36.42 E1.79634
G1 X111.21 Y-36.015 E1.82607
G1 X111.327 Y-35.898 E1.83432
G1 X111.857 Y-35.312 E1.87374
G1 X112.324 Y-34.676 E1.91311
G1 X112.725 Y-33.996 E1.95249
G1 X113.055 Y-33.278 E1.99191
G1 X113.31 Y-32.531 E2.03129
G1 X113.489 Y-31.762 E2.07068
G1 X113.589 Y-30.978 E2.11012
G1 X113.612 Y-30.383 E2.13982
G1 X113.612 Y-14.116 E2.95139
G1 X113.572 Y-13.327 E2.9908
G1 X113.453 Y-12.547 E3.03016
G1 X113.255 Y-11.782 E3.06959
G1 X112.981 Y-11.042 E3.10896
G1 X112.633 Y-10.333 E3.14836
G1 X112.463 Y-10.059 E3.16445
G1 X112.691 Y-9.68 E3.18651
G1 X113.028 Y-8.965 E3.22595
G1 X113.29 Y-8.22 E3.26535
G1 X113.476 Y-7.453 E3.30472
G1 X113.583 Y-6.671 E3.3441
G1 X113.612 Y-6.003 E3.37746
G1 X113.612 Y6.005 E3.97654
G1 X113.572 Y6.794 E4.01595
G1 X113.453 Y7.574 E4.05532
G1 X113.255 Y8.339 E4.09474
G1 X112.981 Y9.079 E4.13411
G1 X112.633 Y9.788 E4.17351
G1 X112.464 Y10.06 E4.18949
G1 X112.725 Y10.503 E4.21514
G1 X113.055 Y11.221 E4.25457
G1 X113.31 Y11.968 E4.29395
G1 X113.489 Y12.737 E4.33334
G1 X113.589 Y13.521 E4.37277
G1 X113.612 Y14.116 E4.40247
G1 X113.612 Y30.383 E5.21404
G1 X113.572 Y31.172 E5.25345
G1 X113.453 Y31.952 E5.29282
G1 X113.255 Y32.717 E5.33224
G1 X112.981 Y33.457 E5.37161
G1 X112.633 Y34.166 E5.41101
G1 X112.215 Y34.837 E5.45045
G1 X111.732 Y35.461 E5.48982
G1 X111.327 Y35.898 E5.51955
G1 X111.21 Y36.015 E5.5278
G1 X110.624 Y36.545 E5.56722
G1 X109.988 Y37.012 E5.60659
G1 X109.308 Y37.413 E5.64597
G1 X108.59 Y37.743 E5.68539
G1 X107.843 Y37.998 E5.72477
G1 X107.074 Y38.177 E5.76416
G1 X106.29 Y38.277 E5.8036
G1 X105.695 Y38.3 E5.8333
G1 X91.362 Y38.3 E6.54838
G1 X91.324 Y38.57 E6.56198
G1 X91.135 Y39.336 E6.60134
G1 X90.869 Y40.084 E6.64095
G1 X89.95 Y42.3 E6.76064
G1 X89.611 Y43.013 E6.80003
G1 X89.202 Y43.688 E6.8394
G1 X88.726 Y44.319 E6.87883
G1 X88.189 Y44.898 E6.91823
G1 X87.544 Y45.461 E6.96095
G1 X87.462 Y45.525 E6.96614
G1 X86.816 Y45.979 E7.00553
G1 X86.127 Y46.365 E7.04493
G1 X85.403 Y46.679 E7.0843
G1 X84.65 Y46.919 E7.12373
G1 X83.895 Y47.078 E7.16222
G1 X81.2 Y47.509 E7.29839
G1 X80.785 Y47.564 E7.31927
G1 X80.096 Y47.637 E7.35384
G1 X80.415 Y48.242 E7.38796
G1 X80.602 Y48.621 E7.40904
G1 X81.743 Y51.107 E7.54551
G1 X82.036 Y51.841 E7.58494
G1 X82.253 Y52.6 E7.62432
G1 X82.392 Y53.377 E7.6637
G1 X82.452 Y54.165 E7.70313
G1 X82.431 Y54.954 E7.74251
G1 X82.423 Y55.059 E7.74776
G1 X82.324 Y55.842 E7.78714
G1 X82.145 Y56.611 E7.82653
G1 X81.89 Y57.358 E7.86591
G1 X81.56 Y58.076 E7.90533
G1 X81.131 Y58.8 E7.94732
G1 X79.799 Y60.793 E8.06691
G1 X79.328 Y61.427 E8.10631
G1 X78.794 Y62.009 E8.14572
G1 X78.205 Y62.535 E8.18512
G1 X77.566 Y62.998 E8.22449
G1 X76.922 Y63.374 E8.26169
G1 X76.83 Y63.422 E8.26687
G1 X76.112 Y63.752 E8.30629
G1 X75.365 Y64.007 E8.34567
G1 X74.596 Y64.185 E8.38505
G1 X73.812 Y64.285 E8.42448
G1 X72.926 Y64.301 E8.46869
G1 X70.186 Y64.197 E8.60549
G1 X69.767 Y64.17 E8.62644
G1 X69.09 Y64.108 E8.66035
G1 X69.285 Y64.765 E8.69455
G1 X69.393 Y65.171 E8.71551
G1 X70.028 Y67.834 E8.85209
G1 X70.172 Y68.61 E8.89146
G1 X70.237 Y69.397 E8.93086
G1 X70.222 Y70.187 E8.97028
G1 X70.127 Y70.971 E9.00968
G1 X69.924 Y71.844 E9.0544
G1 X69.894 Y71.946 E9.0597
G1 X69.633 Y72.691 E9.09908
G1 X69.298 Y73.406 E9.13848
G1 X68.893 Y74.084 E9.17788
G1 X68.421 Y74.717 E9.21727
G1 X67.926 Y75.26 E9.25393
G1 X66.234 Y76.952 E9.37331
G1 X65.648 Y77.482 E9.41273
G1 X65.012 Y77.949 E9.45209
G1 X64.332 Y78.35 E9.49148
G1 X63.614 Y78.68 E9.5309
G1 X62.92 Y78.92 E9.56754
G1 X62.818 Y78.95 E9.57284
G1 X62.05 Y79.134 E9.61224
G1 X61.267 Y79.24 E9.65166
G1 X60.478 Y79.266 E9.69105
G1 X59.69 Y79.212 E9.73045
G1 X58.807 Y79.054 E9.77521
G1 X56.145 Y78.419 E9.91174
G1 X55.736 Y78.31 E9.93286
G1 X55.082 Y78.116 E9.96689
G1 X55.145 Y78.801 E10.00121
G1 X55.172 Y79.219 E10.02211
G1 X55.275 Y81.954 E10.15865
G1 X55.265 Y82.744 E10.19807
G1 X55.175 Y83.529 E10.23749
G1 X55.006 Y84.3 E10.27687
G1 X54.76 Y85.05 E10.31625
G1 X54.396 Y85.856 E10.36037
G1 X54.348 Y85.948 E10.36555
G1 X53.948 Y86.629 E10.40495
G1 X53.481 Y87.266 E10.44436
G1 X52.952 Y87.852 E10.48374
G1 X52.366 Y88.382 E10.52316
G1 X51.767 Y88.825 E10.56033
G1 X49.774 Y90.157 E10.67992
G1 X49.096 Y90.562 E10.71932
G1 X48.381 Y90.896 E10.7587
G1 X47.635 Y91.157 E10.79813
G1 X46.867 Y91.34 E10.83751
G1 X46.033 Y91.449 E10.87948
G1 X45.928 Y91.457 E10.88473
G1 X45.138 Y91.478 E10.92416
G1 X44.351 Y91.418 E10.96354
G1 X43.573 Y91.278 E11.00297
G1 X42.814 Y91.061 E11.04236
G1 X42.077 Y90.767 E11.08194
G1 X39.586 Y89.622 E11.21872
G1 X39.212 Y89.438 E11.23952
G1 X38.611 Y89.122 E11.27339
G1 X38.538 Y89.814 E11.30811
G1 X38.483 Y90.233 E11.32919
G1 X38.052 Y92.923 E11.46511
G1 X37.888 Y93.695 E11.50448
G1 X37.646 Y94.447 E11.54389
G1 X37.33 Y95.171 E11.5833
G1 X36.942 Y95.859 E11.62271
G1 X36.499 Y96.488 E11.66109
G1 X36.435 Y96.57 E11.66628
G1 X35.918 Y97.167 E11.70568
G1 X35.344 Y97.709 E11.74507
G1 X34.717 Y98.19 E11.7845
G1 X34.046 Y98.605 E11.82386
G1 X33.271 Y98.977 E11.86675
G1 X31.055 Y99.895 E11.98641
G1 X30.311 Y100.16 E12.02582
G1 X29.544 Y100.348 E12.06521
G1 X28.762 Y100.458 E12.10461
G1 X27.973 Y100.488 E12.144
G1 X27.184 Y100.439 E12.18344
G1 X27.079 Y100.427 E12.18872
G1 X26.3 Y100.297 E12.22812
G1 X25.538 Y100.09 E12.26751
G1 X24.801 Y99.807 E12.3069
G1 X24.097 Y99.45 E12.34628
G1 X23.388 Y98.993 E12.38836
G1 X21.169 Y97.385 E12.52508
G1 X20.837 Y97.13 E12.54597
G1 X20.308 Y96.702 E12.57991
G1 X20.103 Y97.361 E12.61435
G1 X19.97 Y97.752 E12.63495
G1 X19.019 Y100.32 E12.77157
G1 X18.707 Y101.045 E12.81095
G1 X18.324 Y101.736 E12.85036
G1 X17.873 Y102.384 E12.88975
G1 X17.359 Y102.983 E12.92913
G1 X16.786 Y103.528 E12.96858
G1 X16.708 Y103.595 E12.97371
G1 X16.084 Y104.078 E13.01308
G1 X15.414 Y104.496 E13.05248
G1 X14.705 Y104.844 E13.09188
G1 X13.965 Y105.119 E13.13127
G1 X13.145 Y105.329 E13.1735
G1 X10.793 Y105.796 E13.29313
G1 X10.012 Y105.91 E13.33251
G1 X9.223 Y105.945 E13.37191
G1 X8.434 Y105.9 E13.41134
G1 X7.655 Y105.775 E13.4507
G1 X6.83 Y105.552 E13.49334
G1 X6.733 Y105.52 E13.49843
G1 X5.997 Y105.235 E13.53781
G1 X5.293 Y104.877 E13.57721
G1 X4.629 Y104.45 E13.6166
G1 X4.012 Y103.958 E13.65597
G1 X3.459 Y103.418 E13.69453
G1 X1.593 Y101.407 E13.8314
G1 X1.314 Y101.09 E13.85246
G1 X0.879 Y100.567 E13.8864
G1 X0.549 Y101.176 E13.92096
G1 X0.337 Y101.543 E13.94211
G1 X-1.092 Y103.866 E14.07817
G1 X-1.54 Y104.517 E14.1176
G1 X-2.05 Y105.119 E14.15696
G1 X-2.62 Y105.666 E14.19637
G1 X-3.241 Y106.154 E14.23578
G1 X-3.923 Y106.583 E14.27598
G1 X-4.014 Y106.634 E14.28118
G1 X-4.721 Y106.985 E14.32056
G1 X-5.461 Y107.262 E14.35998
G1 X-6.224 Y107.464 E14.39936
G1 X-7.004 Y107.586 E14.43875
G1 X-7.827 Y107.63 E14.47986
G1 X-10.224 Y107.63 E14.59945
G1 X-11.013 Y107.59 E14.63886
G1 X-11.793 Y107.471 E14.67823
G1 X-12.558 Y107.273 E14.71765
G1 X-13.298 Y106.999 E14.75702
G1 X-14.037 Y106.634 E14.79814
G1 X-14.128 Y106.583 E14.80335
G1 X-14.797 Y106.163 E14.84275
G1 X-15.419 Y105.677 E14.88214
G1 X-15.99 Y105.131 E14.92155
G1 X-16.502 Y104.529 E14.96098
G1 X-16.959 Y103.865 E15.00119
G1 X-18.39 Y101.538 E15.13748
G1 X-18.6 Y101.175 E15.15841
G1 X-18.931 Y100.566 E15.19299
G1 X-19.374 Y101.098 E15.22752
G1 X-19.649 Y101.411 E15.24831
G1 X-21.511 Y103.418 E15.3849
G1 X-22.077 Y103.969 E15.42431
G1 X-22.695 Y104.46 E15.46368
G1 X-23.36 Y104.886 E15.50308
G1 X-24.065 Y105.242 E15.54249
G1 X-24.785 Y105.52 E15.58099
G1 X-24.882 Y105.552 E15.58609
G1 X-25.644 Y105.761 E15.62551
G1 X-26.423 Y105.893 E15.66493
G1 X-27.211 Y105.944 E15.70432
G1 X-28 Y105.916 E15.74371
G1 X-28.845 Y105.796 E15.78629
G1 X-31.197 Y105.329 E15.90592
G1 X-31.963 Y105.136 E15.94533
G1 X-32.705 Y104.867 E15.98471
G1 X-33.417 Y104.524 E16.02414
G1 X-34.09 Y104.111 E16.06353
G1 X-34.76 Y103.595 E16.10572
G1 X-34.838 Y103.528 E16.11085
G1 X-35.411 Y102.984 E16.15027
G1 X-35.925 Y102.384 E16.18969
G1 X-36.376 Y101.736 E16.22908
G1 X-36.759 Y101.046 E16.26845
G1 X-37.07 Y100.32 E16.30785
G1 X-38.023 Y97.747 E16.44474
G1 X-38.158 Y97.352 E16.46557
G1 X-38.36 Y96.701 E16.49957
G1 X-38.895 Y97.134 E16.53391
G1 X-39.225 Y97.387 E16.55466
G1 X-41.439 Y98.992 E16.69109
G1 X-42.101 Y99.423 E16.7305
G1 X-42.803 Y99.784 E16.76988
G1 X-43.538 Y100.073 E16.80928
G1 X-44.299 Y100.285 E16.84869
G1 X-45.131 Y100.427 E16.8908
G1 X-45.236 Y100.439 E16.89607
G1 X-46.024 Y100.488 E16.93546
G1 X-46.814 Y100.458 E16.9749
G1 X-47.596 Y100.349 E17.0143
G1 X-48.362 Y100.16 E17.05366
G1 X-49.107 Y99.895 E17.09311
G1 X-51.323 Y98.977 E17.21278
G1 X-52.037 Y98.638 E17.25221
G1 X-52.712 Y98.229 E17.29158
G1 X-53.343 Y97.754 E17.33099
G1 X-53.922 Y97.217 E17.37038
G1 X-54.487 Y96.57 E17.41324
G1 X-54.551 Y96.488 E17.41843
G1 X-55.005 Y95.842 E17.45782
G1 X-55.391 Y95.153 E17.49722
G1 X-55.705 Y94.429 E17.53659
G1 X-55.945 Y93.676 E17.57602
G1 X-56.104 Y92.921 E17.61452
G1 X-56.535 Y90.226 E17.75068
G1 X-56.59 Y89.808 E17.77171
G1 X-56.662 Y89.122 E17.80612
G1 X-57.268 Y89.441 E17.84029
G1 X-57.645 Y89.626 E17.86124
G1 X-60.132 Y90.768 E17.99778
G1 X-60.865 Y91.061 E18.03716
G1 X-61.625 Y91.278 E18.07659
G1 X-62.402 Y91.418 E18.11598
G1 X-63.189 Y91.477 E18.15535
G1 X-63.98 Y91.457 E18.19483
G1 X-64.085 Y91.449 E18.20008
G1 X-64.868 Y91.35 E18.23946
G1 X-65.637 Y91.171 E18.27885
G1 X-66.384 Y90.916 E18.31823
G1 X-67.102 Y90.586 E18.35765
G1 X-67.826 Y90.157 E18.39964
G1 X-69.819 Y88.825 E18.51923
G1 X-70.453 Y88.354 E18.55863
G1 X-71.035 Y87.82 E18.59804
G1 X-71.561 Y87.231 E18.63744
G1 X-72.024 Y86.592 E18.67681
G1 X-72.4 Y85.948 E18.71401
G1 X-72.448 Y85.856 E18.71919
G1 X-72.778 Y85.138 E18.75861
G1 X-73.033 Y84.391 E18.79799
G1 X-73.211 Y83.622 E18.83737
G1 X-73.311 Y82.838 E18.8768
G1 X-73.327 Y81.952 E18.92101
G1 X-73.223 Y79.212 E19.05781
G1 X-73.196 Y78.793 E19.07876
G1 X-73.134 Y78.115 E19.11272
G1 X-73.794 Y78.311 E19.14707
G1 X-74.201 Y78.42 E19.16809
G1 X-76.858 Y79.054 E19.30437
G1 X-77.634 Y79.198 E19.34375
G1 X-78.421 Y79.263 E19.38315
G1 X-79.211 Y79.248 E19.42257
G1 X-79.995 Y79.153 E19.46197
G1 X-80.869 Y78.95 E19.50673
G1 X-80.971 Y78.92 E19.51204
G1 X-81.716 Y78.659 E19.55142
G1 X-82.431 Y78.324 E19.59081
G1 X-83.109 Y77.919 E19.63021
G1 X-83.742 Y77.447 E19.66961
G1 X-84.284 Y76.954 E19.70616
G1 X-85.977 Y75.262 E19.82557
G1 X-86.506 Y74.676 E19.86496
G1 X-86.974 Y74.04 E19.90436
G1 X-87.375 Y73.36 E19.94374
G1 X-87.705 Y72.642 E19.98316
G1 X-87.946 Y71.946 E20.01991
G1 X-87.976 Y71.844 E20.02521
G1 X-88.16 Y71.076 E20.06461
G1 X-88.266 Y70.293 E20.10403
G1 X-88.292 Y69.504 E20.14342
G1 X-88.238 Y68.716 E20.18282
G1 X-88.08 Y67.835 E20.22748
G1 X-87.447 Y65.179 E20.3637
G1 X-87.338 Y64.768 E20.38491
G1 X-87.142 Y64.108 E20.41926
G1 X-87.825 Y64.171 E20.45348
G1 X-88.246 Y64.198 E20.47453
G1 X-90.979 Y64.301 E20.61098
G1 X-91.769 Y64.291 E20.65039
G1 X-92.553 Y64.201 E20.68976
G1 X-93.325 Y64.032 E20.72919
G1 X-94.075 Y63.786 E20.76857
G1 X-94.881 Y63.422 E20.81269
G1 X-94.973 Y63.374 E20.81787
G1 X-95.654 Y62.974 E20.85727
G1 X-96.291 Y62.507 E20.89668
G1 X-96.877 Y61.978 E20.93606
G1 X-97.407 Y61.392 E20.97548
G1 X-97.85 Y60.793 E21.01265
G1 X-99.182 Y58.8 E21.13224
G1 X-99.587 Y58.122 E21.17164
G1 X-99.921 Y57.407 E21.21102
G1 X-100.182 Y56.661 E21.25045
G1 X-100.365 Y55.893 E21.28984
G1 X-100.462 Y55.206 E21.32445
G1 X-100.472 Y55.101 E21.32971
G1 X-100.507 Y54.312 E21.36911
G1 X-100.462 Y53.523 E21.40854
G1 X-100.337 Y52.743 E21.44795
G1 X-100.135 Y51.98 E21.48733
G1 X-99.794 Y51.102 E21.53432
G1 X-98.653 Y48.621 E21.67056
G1 X-98.47 Y48.251 E21.69115
G1 X-98.147 Y47.636 E21.72581
G1 X-98.842 Y47.563 E21.76068
G1 X-99.256 Y47.508 E21.78151
G1 X-101.946 Y47.078 E21.91742
G1 X-102.719 Y46.914 E21.95684
G1 X-103.471 Y46.673 E21.99624
G1 X-104.194 Y46.357 E22.03561
G1 X-104.882 Y45.969 E22.07501
G1 X-105.514 Y45.525 E22.11355
G1 X-105.596 Y45.461 E22.11874
G1 X-106.193 Y44.944 E22.15814
G1 X-106.735 Y44.37 E22.19752
G1 X-107.216 Y43.743 E22.23695
G1 X-107.631 Y43.072 E22.27631
G1 X-108.003 Y42.297 E22.3192
G1 X-108.921 Y40.081 E22.43887
G1 X-109.186 Y39.337 E22.47827
G1 X-109.374 Y38.57 E22.51767
G1 X-109.484 Y37.788 E22.55707
G1 X-109.514 Y36.999 E22.59646
G1 X-109.464 Y36.202 E22.6363
G1 X-109.452 Y36.098 E22.64152
G1 X-109.321 Y35.319 E22.68093
G1 X-109.113 Y34.557 E22.72034
G1 X-108.829 Y33.821 E22.7597
G1 X-108.472 Y33.116 E22.79912
G1 X-108.021 Y32.417 E22.84062
G1 X-106.42 Y30.206 E22.97681
G1 X-106.165 Y29.874 E22.9977
G1 X-105.728 Y29.334 E23.03236
G1 X-106.387 Y29.129 E23.06679
G1 X-106.778 Y28.996 E23.08739
G1 X-109.346 Y28.045 E23.22401
G1 X-110.071 Y27.733 E23.26339
G1 X-110.762 Y27.35 E23.30281
G1 X-111.41 Y26.899 E23.34219
G1 X-112.009 Y26.385 E23.38157
G1 X-112.554 Y25.812 E23.42103
G1 X-112.621 Y25.734 E23.42616
G1 X-113.104 Y25.11 E23.46552
G1 X-113.522 Y24.44 E23.50492
G1 X-113.87 Y23.731 E23.54433
G1 X-114.145 Y22.991 E23.58371
G1 X-114.355 Y22.171 E23.62594
G1 X-114.822 Y19.819 E23.74557
G1 X-114.936 Y19.038 E23.78495
G1 X-114.971 Y18.249 E23.82435
G1 X-114.926 Y17.46 E23.86378
G1 X-114.801 Y16.681 E23.90314
G1 X-114.578 Y15.856 E23.94578
G1 X-114.546 Y15.759 E23.95087
G1 X-114.261 Y15.023 E23.99025
G1 X-113.903 Y14.319 E24.02965
G1 X-113.476 Y13.655 E24.06904
G1 X-112.984 Y13.038 E24.10841
G1 X-112.445 Y12.486 E24.1469
G1 X-110.442 Y10.627 E24.28324
G1 X-110.124 Y10.347 E24.30438
G1 X-109.593 Y9.905 E24.33884
G1 X-110.204 Y9.574 E24.37351
G1 X-110.576 Y9.359 E24.39495
G1 X-112.896 Y7.93 E24.53089
G1 X-113.546 Y7.483 E24.57025
G1 X-114.148 Y6.971 E24.60967
G1 X-114.695 Y6.402 E24.64905
G1 X-115.182 Y5.78 E24.68846
G1 X-115.609 Y5.102 E24.72844
G1 X-115.66 Y5.011 E24.73364
G1 X-116.011 Y4.304 E24.77302
G1 X-116.288 Y3.564 E24.81244
G1 X-116.49 Y2.801 E24.85182
G1 X-116.612 Y2.021 E24.89121
G1 X-116.656 Y1.198 E24.93233
G1 X-116.656 Y-1.198 E25.05186
G1 X-116.616 Y-1.987 E25.09128
G1 X-116.497 Y-2.767 E25.13064
G1 X-116.299 Y-3.532 E25.17006
G1 X-116.025 Y-4.272 E25.20943
G1 X-115.66 Y-5.011 E25.25055
G1 X-115.609 Y-5.102 E25.25576
G1 X-115.189 Y-5.771 E25.29517
G1 X-114.703 Y-6.393 E25.33455
G1 X-114.157 Y-6.964 E25.37396
G1 X-113.555 Y-7.476 E25.41339
G1 X-112.891 Y-7.933 E25.45361
G1 X-110.566 Y-9.363 E25.58978
G1 X-110.203 Y-9.573 E25.61071
G1 X-109.592 Y-9.905 E25.6454
G1 X-110.131 Y-10.354 E25.6804
G1 X-110.446 Y-10.63 E25.70129
G1 X-112.445 Y-12.485 E25.83735
G1 X-112.996 Y-13.051 E25.87676
G1 X-113.486 Y-13.67 E25.91614
G1 X-113.912 Y-14.335 E25.95554
G1 X-114.269 Y-15.04 E25.99497
G1 X-114.546 Y-15.759 E26.03341
G1 X-114.578 Y-15.856 E26.0385
G1 X-114.787 Y-16.618 E26.07793
G1 X-114.919 Y-17.397 E26.11734
G1 X-114.97 Y-18.185 E26.15674
G1 X-114.942 Y-18.974 E26.19613
G1 X-114.822 Y-19.819 E26.23871
