;FLAVOR:Marlin
;TIME:28578
;Filament used: 35.3699m
;Layer height: 0.2
;MINX:-113.919
;MINY:-107.816
;MINZ:0.3
;MAXX:116.349
;MAXY:107.444
;MAXZ:17.5
;Generated with Cura_SteamEngine 4.8.0
M140 S70
M105
M190 S70
M104 S180
M105
M109 S180
M82 ;absolute extrusion mode
G21        ;metric values
G90        ;absolute positioning
M107       ;start with the fan off
G28   ;move to endstops
G92 E0                  ;zero the extruded length
G1 F200 E3              ;extrude 3mm of feed stock
G92 E0                  ;zero the extruded length again
G1 F120
;Put printing message on LCD screen
M117 Printing...
G92 E0
G92 E0
G1 F1500 E-6.5
;LAYER_COUNT:87
;LAYER:0
M107
G0 F3600 X-80.402 Y47.45 Z0.3
;TYPE:SKIRT
G1 F1500 E0
G1 F1800 X-81.094 Y47.377 E0.03472
G1 X-81.514 Y47.322 E0.05585
G1 X-84.204 Y46.891 E0.19176
G1 X-84.976 Y46.727 E0.23114
G1 X-85.728 Y46.485 E0.27055
G1 X-86.452 Y46.169 E0.30996
G1 X-87.14 Y45.781 E0.34937
G1 X-87.769 Y45.338 E0.38775
G1 X-87.851 Y45.274 E0.39294
G1 X-88.448 Y44.757 E0.43234
G1 X-88.99 Y44.183 E0.47173
G1 X-89.471 Y43.556 E0.51115
G1 X-89.886 Y42.885 E0.55052
G1 X-90.258 Y42.11 E0.5934
G1 X-91.176 Y39.894 E0.71307
G1 X-91.441 Y39.15 E0.75247
G1 X-91.629 Y38.383 E0.79187
G1 X-91.667 Y38.114 E0.80543
G1 X-106.002 Y38.114 E1.5206
G1 X-106.791 Y38.074 E1.56002
G1 X-107.571 Y37.955 E1.59938
G1 X-108.336 Y37.757 E1.6388
G1 X-109.076 Y37.483 E1.67817
G1 X-109.785 Y37.135 E1.71758
G1 X-110.456 Y36.717 E1.75702
G1 X-111.08 Y36.234 E1.79638
G1 X-111.517 Y35.829 E1.82611
G1 X-111.634 Y35.712 E1.83436
G1 X-112.164 Y35.126 E1.87378
G1 X-112.631 Y34.49 E1.91315
G1 X-113.032 Y33.81 E1.95253
G1 X-113.362 Y33.092 E1.99196
G1 X-113.617 Y32.345 E2.03134
G1 X-113.796 Y31.576 E2.07073
G1 X-113.896 Y30.792 E2.11016
G1 X-113.919 Y30.197 E2.13987
G1 X-113.919 Y13.929 E2.95148
G1 X-113.879 Y13.14 E2.99089
G1 X-113.76 Y12.36 E3.03026
G1 X-113.562 Y11.595 E3.06968
G1 X-113.288 Y10.855 E3.10905
G1 X-112.94 Y10.146 E3.14845
G1 X-112.77 Y9.872 E3.16454
G1 X-112.998 Y9.493 E3.18661
G1 X-113.335 Y8.778 E3.22604
G1 X-113.597 Y8.033 E3.26544
G1 X-113.783 Y7.266 E3.30482
G1 X-113.89 Y6.484 E3.34419
G1 X-113.919 Y5.816 E3.37755
G1 X-113.919 Y-6.191 E3.97658
G1 X-113.879 Y-6.98 E4.016
G1 X-113.76 Y-7.76 E4.05536
G1 X-113.562 Y-8.525 E4.09479
G1 X-113.288 Y-9.265 E4.13416
G1 X-112.94 Y-9.974 E4.17356
G1 X-112.771 Y-10.246 E4.18953
G1 X-113.032 Y-10.689 E4.21519
G1 X-113.362 Y-11.407 E4.25461
G1 X-113.617 Y-12.154 E4.29399
G1 X-113.796 Y-12.923 E4.33338
G1 X-113.896 Y-13.707 E4.37281
G1 X-113.919 Y-14.302 E4.40252
G1 X-113.919 Y-30.569 E5.21408
G1 X-113.879 Y-31.358 E5.2535
G1 X-113.76 Y-32.138 E5.29286
G1 X-113.562 Y-32.903 E5.33228
G1 X-113.288 Y-33.643 E5.37165
G1 X-112.94 Y-34.352 E5.41106
G1 X-112.522 Y-35.023 E5.4505
G1 X-112.039 Y-35.647 E5.48986
G1 X-111.634 Y-36.084 E5.51959
G1 X-111.517 Y-36.201 E5.52785
G1 X-110.931 Y-36.731 E5.56726
G1 X-110.295 Y-37.198 E5.60663
G1 X-109.615 Y-37.599 E5.64601
G1 X-108.897 Y-37.929 E5.68544
G1 X-108.15 Y-38.184 E5.72482
G1 X-107.381 Y-38.363 E5.76421
G1 X-106.597 Y-38.463 E5.80364
G1 X-106.002 Y-38.486 E5.83335
G1 X-91.668 Y-38.486 E6.54847
G1 X-91.63 Y-38.756 E6.56208
G1 X-91.441 Y-39.522 E6.60144
G1 X-91.176 Y-40.267 E6.64089
G1 X-90.258 Y-42.483 E6.76056
G1 X-89.919 Y-43.197 E6.79999
G1 X-89.51 Y-43.872 E6.83936
G1 X-89.035 Y-44.503 E6.87877
G1 X-88.498 Y-45.082 E6.91816
G1 X-87.851 Y-45.647 E6.96102
G1 X-87.769 Y-45.711 E6.96621
G1 X-87.123 Y-46.165 E7.0056
G1 X-86.434 Y-46.551 E7.045
G1 X-85.71 Y-46.865 E7.08437
G1 X-84.957 Y-47.105 E7.1238
G1 X-84.205 Y-47.264 E7.16215
G1 X-81.51 Y-47.696 E7.29832
G1 X-81.089 Y-47.751 E7.3195
G1 X-80.403 Y-47.823 E7.35391
G1 X-80.728 Y-48.441 E7.38875
G1 X-80.913 Y-48.817 E7.40966
G1 X-82.05 Y-51.294 E7.54563
G1 X-82.343 Y-52.027 E7.58501
G1 X-82.56 Y-52.787 E7.62445
G1 X-82.699 Y-53.564 E7.66383
G1 X-82.759 Y-54.352 E7.70325
G1 X-82.726 Y-55.288 E7.74998
G1 X-82.716 Y-55.393 E7.75524
G1 X-82.601 Y-56.174 E7.79463
G1 X-82.408 Y-56.94 E7.83404
G1 X-82.139 Y-57.682 E7.87341
G1 X-81.796 Y-58.393 E7.9128
G1 X-81.436 Y-58.986 E7.94741
G1 X-80.105 Y-60.978 E8.06693
G1 X-79.634 Y-61.612 E8.10634
G1 X-79.101 Y-62.195 E8.14574
G1 X-78.512 Y-62.72 E8.18511
G1 X-77.872 Y-63.184 E8.22455
G1 X-77.228 Y-63.56 E8.26175
G1 X-77.136 Y-63.608 E8.26693
G1 X-76.418 Y-63.938 E8.30635
G1 X-75.671 Y-64.193 E8.34573
G1 X-74.902 Y-64.371 E8.38511
G1 X-74.118 Y-64.471 E8.42454
G1 X-73.232 Y-64.487 E8.46875
G1 X-70.493 Y-64.383 E8.6055
G1 X-70.077 Y-64.356 E8.6263
G1 X-69.395 Y-64.293 E8.66047
G1 X-69.594 Y-64.966 E8.69548
G1 X-69.702 Y-65.367 E8.7162
G1 X-70.335 Y-68.017 E8.85213
G1 X-70.479 Y-68.793 E8.8915
G1 X-70.544 Y-69.58 E8.9309
G1 X-70.529 Y-70.37 E8.97032
G1 X-70.435 Y-71.154 E9.00972
G1 X-70.231 Y-72.03 E9.05459
G1 X-70.201 Y-72.132 E9.05989
G1 X-69.94 Y-72.877 E9.09928
G1 X-69.605 Y-73.592 E9.13867
G1 X-69.2 Y-74.27 E9.17807
G1 X-68.728 Y-74.903 E9.21746
G1 X-68.233 Y-75.446 E9.25412
G1 X-66.54 Y-77.139 E9.37357
G1 X-65.954 Y-77.669 E9.41299
G1 X-65.318 Y-78.136 E9.45236
G1 X-64.638 Y-78.537 E9.49174
G1 X-63.92 Y-78.867 E9.53117
G1 X-63.226 Y-79.107 E9.5678
G1 X-63.124 Y-79.137 E9.57311
G1 X-62.356 Y-79.321 E9.61251
G1 X-61.573 Y-79.427 E9.65193
G1 X-60.784 Y-79.453 E9.69131
G1 X-59.996 Y-79.399 E9.73072
G1 X-59.11 Y-79.24 E9.77562
G1 X-56.448 Y-78.604 E9.91217
G1 X-56.044 Y-78.496 E9.93303
G1 X-55.389 Y-78.302 E9.96711
G1 X-55.452 Y-78.986 E10.00138
G1 X-55.479 Y-79.407 E10.02243
G1 X-55.582 Y-82.14 E10.15888
G1 X-55.572 Y-82.93 E10.19829
G1 X-55.482 Y-83.714 E10.23767
G1 X-55.313 Y-84.486 E10.27709
G1 X-55.067 Y-85.236 E10.31647
G1 X-54.703 Y-86.042 E10.36059
G1 X-54.655 Y-86.134 E10.36577
G1 X-54.255 Y-86.815 E10.40517
G1 X-53.788 Y-87.452 E10.44458
G1 X-53.259 Y-88.038 E10.48396
G1 X-52.673 Y-88.568 E10.52338
G1 X-52.072 Y-89.012 E10.56066
G1 X-50.079 Y-90.343 E10.68023
G1 X-49.401 Y-90.748 E10.71963
G1 X-48.685 Y-91.082 E10.75905
G1 X-47.94 Y-91.342 E10.79841
G1 X-47.172 Y-91.526 E10.83781
G1 X-46.487 Y-91.622 E10.87232
G1 X-46.382 Y-91.632 E10.87758
G1 X-45.593 Y-91.667 E10.91699
G1 X-44.804 Y-91.622 E10.95641
G1 X-44.024 Y-91.497 E10.99582
G1 X-43.261 Y-91.295 E11.0352
G1 X-42.386 Y-90.955 E11.08204
G1 X-39.898 Y-89.812 E11.21864
G1 X-39.52 Y-89.626 E11.23965
G1 X-38.917 Y-89.308 E11.27366
G1 X-38.844 Y-90.001 E11.30843
G1 X-38.789 Y-90.417 E11.32936
G1 X-38.359 Y-93.107 E11.46527
G1 X-38.195 Y-93.88 E11.5047
G1 X-37.954 Y-94.632 E11.54409
G1 X-37.638 Y-95.355 E11.58346
G1 X-37.25 Y-96.043 E11.62286
G1 X-36.806 Y-96.675 E11.6614
G1 X-36.742 Y-96.757 E11.66659
G1 X-36.225 Y-97.354 E11.70599
G1 X-35.651 Y-97.896 E11.74537
G1 X-35.024 Y-98.377 E11.7848
G1 X-34.353 Y-98.792 E11.82416
G1 X-33.577 Y-99.165 E11.86712
G1 X-31.36 Y-100.083 E11.98683
G1 X-30.616 Y-100.347 E12.02622
G1 X-29.849 Y-100.536 E12.06563
G1 X-29.067 Y-100.645 E12.10502
G1 X-28.278 Y-100.675 E12.14441
G1 X-27.49 Y-100.626 E12.1838
G1 X-27.385 Y-100.614 E12.18907
G1 X-26.606 Y-100.484 E12.22847
G1 X-25.844 Y-100.277 E12.26787
G1 X-25.107 Y-99.994 E12.30725
G1 X-24.403 Y-99.637 E12.34664
G1 X-23.693 Y-99.179 E12.38879
G1 X-21.475 Y-97.571 E12.52547
G1 X-21.145 Y-97.318 E12.54621
G1 X-20.615 Y-96.889 E12.58023
G1 X-20.41 Y-97.548 E12.61466
G1 X-20.277 Y-97.939 E12.63527
G1 X-19.326 Y-100.507 E12.77189
G1 X-19.014 Y-101.232 E12.81126
G1 X-18.631 Y-101.923 E12.85068
G1 X-18.18 Y-102.571 E12.89007
G1 X-17.666 Y-103.17 E12.92945
G1 X-17.093 Y-103.715 E12.9689
G1 X-17.015 Y-103.782 E12.97403
G1 X-16.391 Y-104.265 E13.0134
G1 X-15.721 Y-104.683 E13.0528
G1 X-15.012 Y-105.031 E13.0922
G1 X-14.272 Y-105.306 E13.13158
G1 X-13.451 Y-105.516 E13.17386
G1 X-11.098 Y-105.983 E13.29354
G1 X-10.317 Y-106.097 E13.33292
G1 X-9.528 Y-106.132 E13.37232
G1 X-8.74 Y-106.087 E13.4117
G1 X-7.96 Y-105.962 E13.45111
G1 X-7.136 Y-105.739 E13.4937
G1 X-7.039 Y-105.707 E13.4988
G1 X-6.303 Y-105.422 E13.53817
G1 X-5.599 Y-105.064 E13.57758
G1 X-4.935 Y-104.637 E13.61696
G1 X-4.318 Y-104.145 E13.65633
G1 X-3.764 Y-103.605 E13.69493
G1 X-1.906 Y-101.602 E13.83123
G1 X-1.629 Y-101.286 E13.8522
G1 X-1.186 Y-100.754 E13.88674
G1 X-.855 Y-101.365 E13.9214
G1 X-.64 Y-101.736 E13.9428
G1 X0.789 Y-104.056 E14.07874
G1 X1.236 Y-104.706 E14.11809
G1 X1.748 Y-105.308 E14.15752
G1 X2.317 Y-105.855 E14.1969
G1 X2.939 Y-106.342 E14.23631
G1 X3.617 Y-106.769 E14.27628
G1 X3.708 Y-106.82 E14.28149
G1 X4.415 Y-107.171 E14.32087
G1 X5.155 Y-107.448 E14.36029
G1 X5.918 Y-107.65 E14.39967
G1 X6.698 Y-107.772 E14.43905
G1 X7.521 Y-107.816 E14.48017
G1 X9.918 Y-107.816 E14.59976
G1 X10.707 Y-107.776 E14.63917
G1 X11.487 Y-107.657 E14.67854
G1 X12.252 Y-107.459 E14.71796
G1 X12.992 Y-107.185 E14.75733
G1 X13.731 Y-106.82 E14.79845
G1 X13.822 Y-106.769 E14.80366
G1 X14.491 Y-106.349 E14.84306
G1 X15.113 Y-105.863 E14.88245
G1 X15.684 Y-105.317 E14.92186
G1 X16.196 Y-104.715 E14.96129
G1 X16.654 Y-104.049 E15.00161
G1 X18.083 Y-101.724 E15.13777
G1 X18.291 Y-101.365 E15.15847
G1 X18.624 Y-100.753 E15.19323
G1 X19.064 Y-101.282 E15.22755
G1 X19.342 Y-101.598 E15.24855
G1 X21.204 Y-103.605 E15.38514
G1 X21.77 Y-104.156 E15.42455
G1 X22.388 Y-104.647 E15.46392
G1 X23.053 Y-105.073 E15.50332
G1 X23.758 Y-105.429 E15.54273
G1 X24.478 Y-105.707 E15.58123
G1 X24.575 Y-105.739 E15.58633
G1 X25.337 Y-105.948 E15.62575
G1 X26.116 Y-106.08 E15.66517
G1 X26.904 Y-106.131 E15.70456
G1 X27.693 Y-106.103 E15.74395
G1 X28.538 Y-105.983 E15.78653
G1 X30.89 Y-105.516 E15.90616
G1 X31.656 Y-105.323 E15.94557
G1 X32.398 Y-105.054 E15.98495
G1 X33.11 Y-104.711 E16.02438
G1 X33.783 Y-104.298 E16.06377
G1 X34.453 Y-103.782 E16.10596
G1 X34.531 Y-103.715 E16.11109
G1 X35.104 Y-103.171 E16.15051
G1 X35.618 Y-102.571 E16.18993
G1 X36.069 Y-101.923 E16.22932
G1 X36.452 Y-101.233 E16.26869
G1 X36.763 Y-100.508 E16.30805
G1 X37.716 Y-97.936 E16.44489
G1 X37.85 Y-97.541 E16.4657
G1 X38.053 Y-96.888 E16.49982
G1 X38.588 Y-97.321 E16.53415
G1 X38.918 Y-97.574 E16.5549
G1 X41.132 Y-99.179 E16.69133
G1 X41.794 Y-99.61 E16.73074
G1 X42.496 Y-99.971 E16.77012
G1 X43.231 Y-100.26 E16.80952
G1 X43.992 Y-100.472 E16.84893
G1 X44.824 Y-100.614 E16.89104
G1 X44.929 Y-100.626 E16.89631
G1 X45.717 Y-100.675 E16.9357
G1 X46.507 Y-100.645 E16.97515
G1 X47.289 Y-100.536 E17.01454
G1 X48.055 Y-100.347 E17.0539
G1 X48.8 Y-100.082 E17.09335
G1 X51.016 Y-99.164 E17.21302
G1 X51.73 Y-98.825 E17.25245
G1 X52.405 Y-98.416 E17.29182
G1 X53.036 Y-97.941 E17.33123
G1 X53.615 Y-97.404 E17.37063
G1 X54.18 Y-96.757 E17.41348
G1 X54.244 Y-96.675 E17.41867
G1 X54.698 Y-96.029 E17.45806
G1 X55.084 Y-95.34 E17.49746
G1 X55.398 Y-94.616 E17.53683
G1 X55.638 Y-93.863 E17.57626
G1 X55.797 Y-93.111 E17.61461
G1 X56.229 Y-90.417 E17.75073
G1 X56.284 Y-89.997 E17.77186
G1 X56.356 Y-89.309 E17.80638
G1 X56.964 Y-89.629 E17.84065
G1 X57.343 Y-89.816 E17.86174
G1 X59.826 Y-90.956 E17.99805
G1 X60.56 Y-91.248 E18.03746
G1 X61.319 Y-91.465 E18.07684
G1 X62.096 Y-91.605 E18.11623
G1 X62.884 Y-91.665 E18.15566
G1 X63.821 Y-91.632 E18.20244
G1 X63.926 Y-91.622 E18.2077
G1 X64.707 Y-91.507 E18.24708
G1 X65.473 Y-91.314 E18.28649
G1 X66.215 Y-91.045 E18.32587
G1 X66.926 Y-90.702 E18.36525
G1 X67.519 Y-90.342 E18.39986
G1 X69.511 Y-89.011 E18.51939
G1 X70.145 Y-88.54 E18.55879
G1 X70.728 Y-88.007 E18.5982
G1 X71.253 Y-87.418 E18.63756
G1 X71.717 Y-86.778 E18.677
G1 X72.093 Y-86.134 E18.71421
G1 X72.141 Y-86.042 E18.71938
G1 X72.471 Y-85.324 E18.75881
G1 X72.726 Y-84.577 E18.79819
G1 X72.904 Y-83.808 E18.83757
G1 X73.004 Y-83.024 E18.877
G1 X73.02 Y-82.138 E18.92121
G1 X72.916 Y-79.399 E19.05796
G1 X72.889 Y-78.983 E19.07875
G1 X72.826 Y-78.301 E19.11292
G1 X73.492 Y-78.498 E19.14757
G1 X73.892 Y-78.605 E19.16823
G1 X76.549 Y-79.24 E19.30452
G1 X77.325 Y-79.385 E19.34391
G1 X78.112 Y-79.45 E19.3833
G1 X78.902 Y-79.435 E19.42273
G1 X79.686 Y-79.341 E19.46212
G1 X80.563 Y-79.137 E19.50704
G1 X80.665 Y-79.107 E19.51235
G1 X81.41 Y-78.846 E19.55173
G1 X82.125 Y-78.511 E19.59112
G1 X82.803 Y-78.106 E19.63052
G1 X83.436 Y-77.634 E19.66992
G1 X83.981 Y-77.138 E19.70668
G1 X85.673 Y-75.445 E19.8261
G1 X86.202 Y-74.859 E19.86548
G1 X86.67 Y-74.222 E19.90492
G1 X87.07 Y-73.542 E19.94428
G1 X87.4 Y-72.824 E19.9837
G1 X87.639 Y-72.132 E20.02022
G1 X87.669 Y-72.03 E20.02553
G1 X87.853 Y-71.262 E20.06493
G1 X87.959 Y-70.479 E20.10435
G1 X87.985 Y-69.69 E20.14373
G1 X87.931 Y-68.902 E20.18314
G1 X87.773 Y-68.02 E20.22784
G1 X87.14 Y-65.365 E20.36401
G1 X87.032 Y-64.958 E20.38502
G1 X86.835 Y-64.294 E20.41958
G1 X87.521 Y-64.357 E20.45395
G1 X87.939 Y-64.384 E20.47484
G1 X90.673 Y-64.487 E20.61134
G1 X91.463 Y-64.477 E20.65076
G1 X92.248 Y-64.387 E20.69018
G1 X93.019 Y-64.218 E20.72956
G1 X93.769 Y-63.972 E20.76893
G1 X94.575 Y-63.608 E20.81306
G1 X94.667 Y-63.56 E20.81823
G1 X95.348 Y-63.16 E20.85764
G1 X95.985 Y-62.693 E20.89704
G1 X96.571 Y-62.164 E20.93643
G1 X97.101 Y-61.578 E20.97585
G1 X97.544 Y-60.978 E21.01306
G1 X98.875 Y-58.986 E21.13258
G1 X99.28 Y-58.308 E21.17198
G1 X99.615 Y-57.593 E21.21137
G1 X99.875 Y-56.847 E21.25079
G1 X100.058 Y-56.079 E21.29018
G1 X100.155 Y-55.393 E21.32474
G1 X100.165 Y-55.288 E21.33
G1 X100.2 Y-54.499 E21.36941
G1 X100.155 Y-53.71 E21.40883
G1 X100.03 Y-52.93 E21.44824
G1 X99.828 Y-52.167 E21.48762
G1 X99.488 Y-51.292 E21.53446
G1 X98.348 Y-48.81 E21.67072
G1 X98.163 Y-48.434 E21.69163
G1 X97.841 Y-47.823 E21.72608
G1 X98.533 Y-47.75 E21.7608
G1 X98.952 Y-47.695 E21.78188
G1 X101.643 Y-47.264 E21.91785
G1 X102.415 Y-47.1 E21.95722
G1 X103.167 Y-46.858 E21.99663
G1 X103.89 Y-46.542 E22.036
G1 X104.578 Y-46.154 E22.07541
G1 X105.208 Y-45.711 E22.11383
G1 X105.29 Y-45.647 E22.11902
G1 X105.887 Y-45.13 E22.15842
G1 X106.429 Y-44.556 E22.19781
G1 X106.91 Y-43.929 E22.23723
G1 X107.325 Y-43.258 E22.27659
G1 X107.697 Y-42.483 E22.31948
G1 X108.615 Y-40.267 E22.43915
G1 X108.88 Y-39.523 E22.47855
G1 X109.068 Y-38.756 E22.51795
G1 X109.178 Y-37.974 E22.55735
G1 X109.208 Y-37.185 E22.59674
G1 X109.159 Y-36.396 E22.63618
G1 X109.147 Y-36.291 E22.64145
G1 X109.017 Y-35.512 E22.68085
G1 X108.81 Y-34.75 E22.72025
G1 X108.527 Y-34.013 E22.75964
G1 X108.17 Y-33.309 E22.79902
G1 X107.713 Y-32.6 E22.8411
G1 X106.112 Y-30.391 E22.97721
G1 X105.86 Y-30.062 E22.99788
G1 X105.422 Y-29.521 E23.03261
G1 X106.088 Y-29.314 E23.06741
G1 X106.486 Y-29.178 E23.08839
G1 X109.042 Y-28.23 E23.2244
G1 X109.768 Y-27.918 E23.26382
G1 X110.458 Y-27.535 E23.30319
G1 X111.106 Y-27.084 E23.34258
G1 X111.705 Y-26.569 E23.38199
G1 X112.247 Y-25.999 E23.42123
G1 X112.314 Y-25.921 E23.42636
G1 X112.797 Y-25.297 E23.46573
G1 X113.215 Y-24.627 E23.50513
G1 X113.563 Y-23.918 E23.54453
G1 X113.838 Y-23.178 E23.58392
G1 X114.048 Y-22.357 E23.6262
G1 X114.515 Y-20.004 E23.74588
G1 X114.629 Y-19.223 E23.78525
G1 X114.664 Y-18.434 E23.82466
G1 X114.619 Y-17.646 E23.86403
G1 X114.494 Y-16.866 E23.90345
G1 X114.271 Y-16.042 E23.94603
G1 X114.239 Y-15.945 E23.95113
G1 X113.954 Y-15.209 E23.99051
G1 X113.596 Y-14.505 E24.02991
G1 X113.169 Y-13.841 E24.06929
G1 X112.677 Y-13.224 E24.10866
G1 X112.138 Y-12.672 E24.14716
G1 X110.136 Y-10.814 E24.28342
G1 X109.819 Y-10.535 E24.30449
G1 X109.286 Y-10.091 E24.3391
G1 X109.898 Y-9.759 E24.37384
G1 X110.264 Y-9.547 E24.39494
G1 X112.585 Y-8.119 E24.53089
G1 X113.236 Y-7.672 E24.57029
G1 X113.838 Y-7.161 E24.60969
G1 X114.386 Y-6.592 E24.6491
G1 X114.873 Y-5.971 E24.68847
G1 X115.302 Y-5.289 E24.72867
G1 X115.353 Y-5.198 E24.73387
G1 X115.704 Y-4.491 E24.77325
G1 X115.981 Y-3.751 E24.81267
G1 X116.183 Y-2.988 E24.85205
G1 X116.305 Y-2.208 E24.89144
G1 X116.349 Y-1.385 E24.93256
G1 X116.349 Y1.012 E25.05214
G1 X116.309 Y1.801 E25.09156
G1 X116.19 Y2.581 E25.13092
G1 X115.992 Y3.346 E25.17035
G1 X115.718 Y4.086 E25.20971
G1 X115.353 Y4.825 E25.25083
G1 X115.302 Y4.916 E25.25604
G1 X114.882 Y5.585 E25.29545
G1 X114.396 Y6.207 E25.33483
G1 X113.85 Y6.778 E25.37424
G1 X113.248 Y7.29 E25.41367
G1 X112.582 Y7.748 E25.454
G1 X110.257 Y9.177 E25.59015
G1 X109.902 Y9.383 E25.61063
G1 X109.286 Y9.719 E25.64563
G1 X109.817 Y10.161 E25.6801
G1 X110.131 Y10.437 E25.70096
G1 X112.137 Y12.298 E25.83747
